; generated by PrusaSlicer 2.0.0+ on 2019-08-01 at 01:09:55

; 

; external perimeters extrusion width = 0.60mm
; perimeters extrusion width = 0.50mm
; infill extrusion width = 0.50mm
; solid infill extrusion width = 0.50mm
; top infill extrusion width = 0.45mm
; first layer extrusion width = 0.42mm

M73 P0 R17
M73 Q0 S17
M201 X1000 Y1000 Z1000 E5000 ; sets maximum accelerations, mm/sec^2
M203 X200 Y200 Z12 E120 ; sets maximum feedrates, mm/sec
M204 P1250 R1250 T1250 ; sets acceleration (P, T) and retract acceleration (R), mm/sec^2
M205 X8.00 Y8.00 Z0.40 E1.50 ; sets the jerk limits, mm/sec
M205 S0 T0 ; sets the minimum extruding and travel feed rate, mm/sec
M107
M115 U3.7.2 ; tell printer latest fw version
G90 ; use absolute coordinates
M83 ; extruder relative mode
M104 S240 ; set extruder temp
M140 S85 ; set bed temp
M190 S85 ; wait for bed temp
M109 S240 ; wait for extruder temp
G28 W ; home all without mesh bed level
G80 ; mesh bed leveling
G1 Y-3.0 F1000.0 ; go outside print area
G92 E0.0
G1 X60.0 E9.0 F1000.0 ; intro line
M73 Q0 S17
M73 P0 R17
G1 X100.0 E12.5 F1000.0 ; intro line
G92 E0.0
M221 S95
M900 K45 ; Filament gcode
G21 ; set units to millimeters
G90 ; use absolute coordinates
M83 ; use relative distances for extrusion
;BEFORE_LAYER_CHANGE
G92 E0.0
;0.2


G1 E-0.80000 F2100.00000
G1 Z0.600 F10800.000
;AFTER_LAYER_CHANGE
;0.2
G1 X113.894 Y95.576
G1 Z0.200
G1 E0.80000 F2100.00000
M204 S1000
G1 F1200
G1 X114.969 Y94.440 E0.04903
G1 X116.172 Y93.415 E0.04957
G1 X117.382 Y92.588 E0.04594
G1 X119.004 Y91.729 E0.05755
G1 X120.352 Y91.196 E0.04545
G1 X121.880 Y90.772 E0.04970
G1 X123.425 Y90.520 E0.04908
G1 X125.002 Y90.434 E0.04952
G1 X126.572 Y90.519 E0.04930
G1 X128.112 Y90.771 E0.04894
G1 X129.642 Y91.194 E0.04976
G1 X130.999 Y91.730 E0.04577
G1 X132.483 Y92.504 E0.05245
G1 X133.701 Y93.323 E0.04602
G1 X135.106 Y94.514 E0.05778
G1 X136.102 Y95.571 E0.04552
G1 X137.057 Y96.829 E0.04953
G1 X137.869 Y98.177 E0.04933
G1 X138.527 Y99.599 E0.04912
G1 X139.034 Y101.101 E0.04974
G1 X139.372 Y102.631 E0.04912
G1 X139.543 Y104.192 E0.04924
G1 X139.549 Y105.626 E0.04496
G1 X139.349 Y107.488 E0.05872
G1 X139.030 Y108.913 E0.04577
G1 X138.486 Y110.496 E0.05250
G1 X137.865 Y111.829 E0.04611
G1 X137.052 Y113.180 E0.04945
G1 X136.102 Y114.429 E0.04920
G1 X135.033 Y115.558 E0.04874
G1 X133.830 Y116.584 E0.04957
G1 X132.617 Y117.412 E0.04606
G1 X130.988 Y118.274 E0.05776
G1 X129.646 Y118.804 E0.04524
G1 X128.121 Y119.227 E0.04961
G1 X126.575 Y119.480 E0.04912
G1 X125.000 Y119.566 E0.04945
G1 X123.432 Y119.481 E0.04924
G1 X121.885 Y119.228 E0.04916
G1 X120.367 Y118.809 E0.04937
G1 X119.008 Y118.273 E0.04581
G1 X117.517 Y117.496 E0.05271
G1 X116.305 Y116.681 E0.04581
G1 X114.895 Y115.487 E0.05794
G1 X113.896 Y114.426 E0.04569
G1 X112.943 Y113.171 E0.04940
G1 X112.135 Y111.830 E0.04908
G1 X111.473 Y110.401 E0.04937
G1 X110.968 Y108.905 E0.04953
G1 X110.629 Y107.370 E0.04929
G1 X110.457 Y105.808 E0.04928
G1 X110.451 Y104.374 E0.04496
G1 X110.651 Y102.512 E0.05872
G1 X110.970 Y101.087 E0.04577
G1 X111.514 Y99.504 E0.05250
G1 X112.135 Y98.171 E0.04611
G1 X112.948 Y96.820 E0.04945
G1 X113.858 Y95.624 E0.04711
G1 X114.158 Y95.851 F10800.000
G1 F1200
G1 X115.161 Y94.781 E0.04600
G1 X116.395 Y93.720 E0.05102
G1 X117.584 Y92.907 E0.04517
G1 X119.136 Y92.083 E0.05508
G1 X120.468 Y91.555 E0.04492
G1 X121.955 Y91.142 E0.04842
G1 X123.468 Y90.894 E0.04805
G1 X124.999 Y90.811 E0.04807
G1 X126.530 Y90.894 E0.04807
G1 X128.039 Y91.141 E0.04795
G1 X129.522 Y91.551 E0.04823
G1 X130.849 Y92.076 E0.04475
G1 X132.400 Y92.897 E0.05504
G1 X133.593 Y93.710 E0.04525
G1 X134.767 Y94.708 E0.04832
G1 X135.808 Y95.808 E0.04750
G1 X136.736 Y97.027 E0.04802
G1 X137.532 Y98.346 E0.04830
G1 X138.136 Y99.643 E0.04487
G1 X138.667 Y101.187 E0.05120
G1 X138.980 Y102.592 E0.04512
G1 X139.172 Y104.374 E0.05620
G1 X139.167 Y105.775 E0.04393
G1 X139.000 Y107.305 E0.04825
G1 X138.672 Y108.791 E0.04773
G1 X138.183 Y110.246 E0.04813
G1 X137.536 Y111.645 E0.04830
G1 X136.749 Y112.955 E0.04794
G1 X135.820 Y114.179 E0.04817
G1 X134.838 Y115.220 E0.04487
G1 X133.607 Y116.279 E0.05091
G1 X132.454 Y117.067 E0.04382
G1 X130.858 Y117.920 E0.05671
G1 X129.531 Y118.445 E0.04475
G1 X128.042 Y118.859 E0.04845
G1 X126.532 Y119.106 E0.04798
G1 X125.002 Y119.189 E0.04806
G1 X123.474 Y119.106 E0.04796
G1 X121.966 Y118.860 E0.04790
G1 X120.484 Y118.450 E0.04821
G1 X119.159 Y117.927 E0.04469
G1 X117.600 Y117.103 E0.05529
G1 X116.413 Y116.294 E0.04504
G1 X115.234 Y115.293 E0.04849
G1 X114.192 Y114.192 E0.04754
G1 X113.264 Y112.973 E0.04802
G1 X112.471 Y111.657 E0.04817
G1 X111.864 Y110.357 E0.04500
G1 X111.336 Y108.819 E0.05099
G1 X111.020 Y107.409 E0.04529
G1 X110.828 Y105.626 E0.05623
G1 X110.833 Y104.225 E0.04393
G1 X111.000 Y102.695 E0.04825
G1 X111.328 Y101.209 E0.04773
G1 X111.817 Y99.754 E0.04813
G1 X112.464 Y98.355 E0.04830
G1 X113.251 Y97.045 E0.04794
G1 X114.121 Y95.899 E0.04511
G1 F8640
G1 X115.161 Y94.781 E-0.35256
G1 X116.395 Y93.720 E-0.37575
G1 X116.508 Y93.642 E-0.03168
G1 E-0.04000 F2100.00000
G1 Z0.800 F10800.000
G1 X120.282 Y102.449
G1 Z0.200
G1 E0.80000 F2100.00000
G1 F1200
G1 X120.050 Y102.468 E0.00730
G1 X119.662 Y102.436 E0.01220
G1 X119.285 Y102.343 E0.01220
G1 X118.927 Y102.191 E0.01220
G1 X118.598 Y101.983 E0.01220
G1 X118.307 Y101.725 E0.01220
G1 X118.061 Y101.423 E0.01220
G1 X117.866 Y101.087 E0.01220
G1 X117.728 Y100.723 E0.01220
G1 X117.667 Y100.424 E0.00955
G1 X117.633 Y99.970 E0.01428
G1 X117.682 Y99.567 E0.01274
G1 X117.790 Y99.193 E0.01220
G1 X117.921 Y98.918 E0.00955
G1 X118.166 Y98.534 E0.01428
G1 X118.447 Y98.241 E0.01274
G1 X118.758 Y98.007 E0.01220
G1 X119.103 Y97.826 E0.01220
G1 X119.486 Y97.698 E0.01268
G1 X119.965 Y97.636 E0.01513
G1 X120.255 Y97.643 E0.00911
G1 X120.629 Y97.703 E0.01186
G1 X120.998 Y97.826 E0.01220
G1 X121.342 Y98.007 E0.01220
G1 X121.653 Y98.241 E0.01220
G1 X121.923 Y98.521 E0.01220
G1 X122.144 Y98.842 E0.01220
G1 X122.310 Y99.193 E0.01220
G1 X122.419 Y99.567 E0.01220
G1 X122.466 Y99.953 E0.01220
G1 X122.452 Y100.287 E0.01047
G1 X122.747 Y100.130 E0.01047
G1 X123.287 Y99.915 E0.01822
G1 X123.847 Y99.760 E0.01822
G1 X124.420 Y99.666 E0.01822
G1 X124.836 Y99.643 E0.01307
G1 X125.568 Y99.664 E0.02295
G1 X126.153 Y99.760 E0.01861
G1 X126.713 Y99.915 E0.01822
G1 X127.253 Y100.130 E0.01822
G1 X127.548 Y100.287 E0.01047
G1 X127.534 Y99.953 E0.01047
G1 X127.581 Y99.567 E0.01220
G1 X127.690 Y99.193 E0.01220
G1 X127.856 Y98.842 E0.01220
G1 X128.029 Y98.591 E0.00955
G1 X128.333 Y98.251 E0.01428
G1 X128.658 Y98.007 E0.01274
G1 X129.002 Y97.826 E0.01220
G1 X129.386 Y97.698 E0.01268
G1 X129.864 Y97.636 E0.01513
G1 X130.155 Y97.643 E0.00911
G1 X130.528 Y97.703 E0.01186
G1 X130.897 Y97.826 E0.01220
G1 X131.242 Y98.007 E0.01220
G1 X131.553 Y98.241 E0.01220
G1 X131.822 Y98.521 E0.01220
G1 X132.043 Y98.842 E0.01220
G1 X132.174 Y99.117 E0.00955
G1 X132.316 Y99.549 E0.01428
G1 X132.365 Y99.953 E0.01274
G1 X132.349 Y100.342 E0.01220
G1 X132.272 Y100.723 E0.01220
G1 X132.134 Y101.087 E0.01220
G1 X131.939 Y101.423 E0.01220
G1 X131.693 Y101.725 E0.01220
G1 X131.402 Y101.983 E0.01220
G1 X131.073 Y102.191 E0.01220
G1 X130.793 Y102.310 E0.00955
G1 X130.355 Y102.435 E0.01428
G1 X129.950 Y102.468 E0.01274
G1 X129.718 Y102.449 E0.00730
G1 X129.984 Y103.014 E0.01960
G1 X130.170 Y103.565 E0.01822
G1 X130.297 Y104.142 E0.01853
G1 X130.363 Y104.889 E0.02351
G1 X130.357 Y105.297 E0.01281
G1 X130.295 Y105.868 E0.01800
G1 X130.170 Y106.435 E0.01822
G1 X129.984 Y106.986 E0.01822
G1 X129.715 Y107.555 E0.01973
G1 X129.864 Y107.536 E0.00471
G1 X130.155 Y107.542 E0.00911
G1 X130.528 Y107.603 E0.01186
G1 X130.897 Y107.726 E0.01220
G1 X131.242 Y107.907 E0.01220
G1 X131.553 Y108.140 E0.01220
G1 X131.822 Y108.421 E0.01220
G1 X132.043 Y108.741 E0.01220
G1 X132.174 Y109.016 E0.00955
G1 X132.316 Y109.449 E0.01428
G1 X132.365 Y109.852 E0.01274
G1 X132.349 Y110.241 E0.01220
G1 X132.272 Y110.622 E0.01220
G1 X132.134 Y110.986 E0.01220
G1 X131.939 Y111.323 E0.01220
G1 X131.693 Y111.624 E0.01220
G1 X131.402 Y111.882 E0.01220
G1 X131.073 Y112.090 E0.01220
G1 X130.793 Y112.210 E0.00955
G1 X130.355 Y112.334 E0.01428
G1 X129.950 Y112.367 E0.01274
G1 X129.562 Y112.336 E0.01220
G1 X129.184 Y112.243 E0.01220
G1 X128.826 Y112.090 E0.01220
G1 X128.498 Y111.882 E0.01220
G1 X128.206 Y111.624 E0.01220
G1 X127.960 Y111.323 E0.01220
G1 X127.766 Y110.986 E0.01220
G1 X127.628 Y110.622 E0.01220
G1 X127.550 Y110.241 E0.01220
G1 X127.534 Y109.852 E0.01220
G1 X127.553 Y109.703 E0.00473
G1 X127.265 Y109.865 E0.01036
G1 X126.713 Y110.085 E0.01861
G1 X126.153 Y110.240 E0.01822
G1 X125.580 Y110.334 E0.01822
G1 X125.000 Y110.366 E0.01822
G1 X124.420 Y110.334 E0.01822
G1 X123.847 Y110.240 E0.01822
G1 X123.287 Y110.085 E0.01822
G1 X122.747 Y109.870 E0.01822
G1 X122.447 Y109.710 E0.01066
G1 X122.466 Y109.835 E0.00396
G1 X122.450 Y110.241 E0.01274
G1 X122.372 Y110.622 E0.01220
G1 X122.234 Y110.986 E0.01220
G1 X122.040 Y111.323 E0.01220
G1 X121.794 Y111.624 E0.01220
G1 X121.502 Y111.882 E0.01220
G1 X121.174 Y112.090 E0.01220
G1 X120.893 Y112.210 E0.00955
G1 X120.455 Y112.334 E0.01428
G1 X120.050 Y112.367 E0.01274
G1 X119.662 Y112.336 E0.01220
G1 X119.285 Y112.243 E0.01220
G1 X118.927 Y112.090 E0.01220
G1 X118.598 Y111.882 E0.01220
G1 X118.307 Y111.624 E0.01220
G1 X118.061 Y111.323 E0.01220
G1 X117.909 Y111.059 E0.00955
G1 X117.732 Y110.639 E0.01428
G1 X117.651 Y110.241 E0.01274
G1 X117.635 Y109.852 E0.01220
G1 X117.682 Y109.466 E0.01220
G1 X117.790 Y109.093 E0.01220
G1 X117.921 Y108.817 E0.00955
G1 X118.166 Y108.434 E0.01428
G1 X118.447 Y108.140 E0.01274
G1 X118.758 Y107.907 E0.01220
G1 X119.103 Y107.726 E0.01220
G1 X119.486 Y107.598 E0.01268
G1 X119.965 Y107.536 E0.01513
G1 X120.279 Y107.546 E0.00985
G1 X120.016 Y106.986 E0.01940
G1 X119.830 Y106.435 E0.01822
G1 X119.703 Y105.858 E0.01853
G1 X119.637 Y105.111 E0.02351
G1 X119.643 Y104.703 E0.01281
G1 X119.705 Y104.132 E0.01800
G1 X119.830 Y103.565 E0.01822
G1 X120.016 Y103.014 E0.01822
G1 X120.253 Y102.501 E0.01772
G1 F8640
G1 X120.050 Y102.468 E-0.04741
G1 X119.662 Y102.436 E-0.08983
G1 X119.285 Y102.343 E-0.08983
G1 X118.927 Y102.191 E-0.08983
G1 X118.598 Y101.983 E-0.08983
G1 X118.307 Y101.725 E-0.08983
G1 X118.061 Y101.423 E-0.08983
G1 X117.866 Y101.087 E-0.08983
G1 X117.738 Y100.747 E-0.08381
G1 E-0.04000 F2100.00000
G1 Z0.800 F10800.000
G1 X121.331 Y101.631
G1 Z0.200
G1 E0.80000 F2100.00000
G1 F1200
G1 X120.998 Y101.856 E0.01261
G1 X120.696 Y101.984 E0.01029
G1 X120.377 Y102.063 E0.01029
G1 X120.050 Y102.089 E0.01029
G1 X119.723 Y102.063 E0.01029
G1 X119.405 Y101.984 E0.01029
G1 X119.103 Y101.856 E0.01029
G1 X118.825 Y101.680 E0.01029
G1 X118.580 Y101.463 E0.01029
G1 X118.372 Y101.209 E0.01029
G1 X118.208 Y100.924 E0.01029
G1 X118.092 Y100.618 E0.01029
G1 X118.042 Y100.372 E0.00785
G1 X118.012 Y99.979 E0.01237
G1 X118.052 Y99.642 E0.01062
G1 X118.144 Y99.327 E0.01029
G1 X118.251 Y99.101 E0.00785
G1 X118.463 Y98.768 E0.01237
G1 X118.698 Y98.524 E0.01062
G1 X118.960 Y98.327 E0.01029
G1 X119.251 Y98.174 E0.01029
G1 X119.571 Y98.068 E0.01058
G1 X119.985 Y98.014 E0.01309
G1 X120.221 Y98.019 E0.00739
G1 X120.538 Y98.071 E0.01008
G1 X120.849 Y98.174 E0.01029
G1 X121.140 Y98.327 E0.01029
G1 X121.402 Y98.524 E0.01029
G1 X121.630 Y98.761 E0.01029
G1 X121.816 Y99.031 E0.01029
G1 X121.957 Y99.327 E0.01029
G1 X122.048 Y99.642 E0.01029
G1 X122.088 Y99.968 E0.01029
G1 X122.074 Y100.296 E0.01029
G1 X122.009 Y100.618 E0.01029
G1 X121.892 Y100.924 E0.01029
G1 X121.728 Y101.209 E0.01029
G1 X121.633 Y101.325 E0.00470
G1 X121.981 Y101.029 E0.01432
G1 X122.428 Y100.726 E0.01693
G1 X122.906 Y100.473 E0.01693
G1 X123.407 Y100.273 E0.01693
G1 X123.928 Y100.129 E0.01693
G1 X124.461 Y100.041 E0.01693
G1 X124.841 Y100.021 E0.01194
G1 X125.532 Y100.040 E0.02167
G1 X126.072 Y100.129 E0.01718
G1 X126.593 Y100.273 E0.01693
G1 X127.094 Y100.473 E0.01693
G1 X127.572 Y100.726 E0.01693
G1 X128.019 Y101.029 E0.01693
G1 X128.367 Y101.325 E0.01432
G1 X128.272 Y101.209 E0.00470
G1 X128.108 Y100.924 E0.01029
G1 X127.991 Y100.618 E0.01029
G1 X127.926 Y100.296 E0.01029
G1 X127.912 Y99.968 E0.01029
G1 X127.952 Y99.642 E0.01029
G1 X128.043 Y99.327 E0.01029
G1 X128.184 Y99.031 E0.01029
G1 X128.326 Y98.825 E0.00785
G1 X128.589 Y98.530 E0.01237
G1 X128.860 Y98.327 E0.01062
G1 X129.151 Y98.174 E0.01029
G1 X129.471 Y98.068 E0.01058
G1 X129.885 Y98.014 E0.01309
G1 X130.120 Y98.019 E0.00739
G1 X130.438 Y98.071 E0.01008
G1 X130.749 Y98.174 E0.01029
G1 X131.040 Y98.327 E0.01029
G1 X131.302 Y98.524 E0.01029
G1 X131.529 Y98.761 E0.01029
G1 X131.716 Y99.031 E0.01029
G1 X131.823 Y99.257 E0.00785
G1 X131.946 Y99.632 E0.01237
G1 X131.987 Y99.968 E0.01062
G1 X131.974 Y100.296 E0.01029
G1 X131.908 Y100.618 E0.01029
G1 X131.792 Y100.924 E0.01029
G1 X131.628 Y101.209 E0.01029
G1 X131.420 Y101.463 E0.01029
G1 X131.175 Y101.680 E0.01029
G1 X130.897 Y101.856 E0.01029
G1 X130.667 Y101.954 E0.00785
G1 X130.287 Y102.062 E0.01237
G1 X129.950 Y102.089 E0.01062
G1 X129.623 Y102.063 E0.01029
G1 X129.304 Y101.984 E0.01029
G1 X129.002 Y101.856 E0.01029
G1 X128.669 Y101.631 E0.01261
G1 X128.802 Y101.771 E0.00606
G1 X129.128 Y102.201 E0.01693
G1 X129.407 Y102.664 E0.01693
G1 X129.634 Y103.154 E0.01693
G1 X129.806 Y103.666 E0.01693
G1 X129.924 Y104.199 E0.01712
G1 X129.985 Y104.903 E0.02215
G1 X129.980 Y105.274 E0.01165
G1 X129.922 Y105.807 E0.01680
G1 X129.806 Y106.334 E0.01693
G1 X129.634 Y106.846 E0.01693
G1 X129.407 Y107.336 E0.01693
G1 X129.128 Y107.799 E0.01693
G1 X128.802 Y108.229 E0.01693
G1 X128.666 Y108.372 E0.00617
G1 X128.860 Y108.226 E0.00759
G1 X129.151 Y108.074 E0.01029
G1 X129.471 Y107.967 E0.01058
G1 X129.885 Y107.913 E0.01309
G1 X130.120 Y107.918 E0.00739
G1 X130.438 Y107.970 E0.01008
G1 X130.749 Y108.074 E0.01029
G1 X131.040 Y108.226 E0.01029
G1 X131.302 Y108.424 E0.01029
G1 X131.529 Y108.660 E0.01029
G1 X131.716 Y108.930 E0.01029
G1 X131.823 Y109.157 E0.00785
G1 X131.946 Y109.531 E0.01237
G1 X131.987 Y109.868 E0.01062
G1 X131.974 Y110.196 E0.01029
G1 X131.908 Y110.517 E0.01029
G1 X131.792 Y110.824 E0.01029
G1 X131.628 Y111.108 E0.01029
G1 X131.420 Y111.362 E0.01029
G1 X131.175 Y111.580 E0.01029
G1 X130.897 Y111.755 E0.01029
G1 X130.667 Y111.853 E0.00785
G1 X130.287 Y111.961 E0.01237
G1 X129.950 Y111.989 E0.01062
G1 X129.623 Y111.962 E0.01029
G1 X129.304 Y111.884 E0.01029
G1 X129.002 Y111.755 E0.01029
G1 X128.725 Y111.580 E0.01029
G1 X128.479 Y111.362 E0.01029
G1 X128.272 Y111.108 E0.01029
G1 X128.108 Y110.824 E0.01029
G1 X127.991 Y110.517 E0.01029
G1 X127.926 Y110.196 E0.01029
G1 X127.912 Y109.868 E0.01029
G1 X127.952 Y109.542 E0.01029
G1 X128.043 Y109.227 E0.01029
G1 X128.184 Y108.930 E0.01029
G1 X128.380 Y108.664 E0.01038
G1 X128.019 Y108.971 E0.01488
G1 X127.703 Y109.185 E0.01194
G1 X127.102 Y109.524 E0.02167
G1 X126.593 Y109.727 E0.01718
G1 X126.072 Y109.871 E0.01693
G1 X125.539 Y109.959 E0.01693
G1 X125.000 Y109.988 E0.01693
G1 X124.461 Y109.959 E0.01693
G1 X123.928 Y109.871 E0.01693
G1 X123.407 Y109.727 E0.01693
G1 X122.906 Y109.527 E0.01693
G1 X122.428 Y109.274 E0.01693
G1 X121.981 Y108.971 E0.01693
G1 X121.649 Y108.689 E0.01366
G1 X121.816 Y108.930 E0.00919
G1 X121.957 Y109.227 E0.01029
G1 X122.026 Y109.467 E0.00785
G1 X122.088 Y109.857 E0.01237
G1 X122.074 Y110.196 E0.01062
G1 X122.009 Y110.517 E0.01029
G1 X121.892 Y110.824 E0.01029
G1 X121.728 Y111.108 E0.01029
G1 X121.521 Y111.362 E0.01029
G1 X121.275 Y111.580 E0.01029
G1 X120.998 Y111.755 E0.01029
G1 X120.767 Y111.853 E0.00785
G1 X120.388 Y111.961 E0.01237
G1 X120.050 Y111.989 E0.01062
G1 X119.723 Y111.962 E0.01029
G1 X119.405 Y111.884 E0.01029
G1 X119.103 Y111.755 E0.01029
G1 X118.825 Y111.580 E0.01029
G1 X118.580 Y111.362 E0.01029
G1 X118.372 Y111.108 E0.01029
G1 X118.247 Y110.891 E0.00785
G1 X118.094 Y110.527 E0.01237
G1 X118.026 Y110.196 E0.01062
G1 X118.013 Y109.868 E0.01029
G1 X118.052 Y109.542 E0.01029
G1 X118.144 Y109.227 E0.01029
G1 X118.251 Y109.000 E0.00785
G1 X118.463 Y108.668 E0.01237
G1 X118.698 Y108.424 E0.01062
G1 X118.960 Y108.226 E0.01029
G1 X119.251 Y108.074 E0.01029
G1 X119.571 Y107.967 E0.01058
